src/assets/content.svg

<svg width="30" height="30" viewBox="0 0 30 30" fill="none" xmlns="http://www.w3.org/2000/svg">
<path d="M21.3055 17.8484C21.8931 16.359 23.9541 16.3123 24.6336 17.7087L24.6942 17.8484L24.6951 17.8494L24.744 17.9724L24.8611 18.2507C25.4854 19.6213 26.6189 20.7011 28.0272 21.2566H28.0262L28.1512 21.3054H28.1522C29.689 21.9121 29.6889 24.0873 28.1522 24.6941L28.1512 24.6951L28.0262 24.7429L28.0272 24.7439C26.5252 25.3364 25.3364 26.5252 24.744 28.0271L24.6951 28.1511L24.6942 28.1521C24.0874 29.6889 21.9121 29.689 21.3055 28.1521V28.1511L21.2567 28.0271C20.6642 26.525 19.4745 25.3364 17.9725 24.7439V24.7429L17.8494 24.6951L17.8484 24.6941C16.3112 24.0875 16.3111 21.9119 17.8484 21.3054H17.8494L17.9725 21.2566C19.4746 20.6641 20.6642 19.4745 21.2567 17.9724L21.3055 17.8494V17.8484ZM22.9998 18.8357C22.2119 20.7169 20.717 22.2118 18.8358 22.9998C20.7166 23.7875 22.2117 25.2822 22.9998 27.1628C23.7877 25.2825 25.2825 23.7877 27.1629 22.9998C25.2822 22.2116 23.7876 20.7166 22.9998 18.8357ZM14.3338 0.695069C16.497 0.695069 18.1879 0.693847 19.5359 0.822022C20.8985 0.951589 22.0112 1.22062 22.991 1.82105C24.0187 2.45085 24.8827 3.31491 25.5125 4.34253C26.1129 5.32235 26.382 6.43502 26.5115 7.79761C26.6397 9.1457 26.6385 10.8365 26.6385 12.9998C26.6384 13.5362 26.2032 13.9714 25.6668 13.9714C25.1303 13.9714 24.6952 13.5362 24.6951 12.9998C24.6951 10.7989 24.6944 9.21601 24.577 7.9812C24.461 6.76129 24.238 5.98129 23.8563 5.35815C23.3867 4.59193 22.7425 3.94686 21.9764 3.4773C21.3531 3.09539 20.5725 2.87264 19.3524 2.75659C18.1176 2.63919 16.5346 2.63843 14.3338 2.63843H13.6668C11.1454 2.63843 9.33203 2.6396 7.92755 2.79175C6.54142 2.94195 5.66912 3.23013 4.98615 3.72632C4.5027 4.07758 4.07764 4.50264 3.72638 4.98608C3.23017 5.66907 2.94201 6.54132 2.79181 7.92749C2.63965 9.33198 2.63849 11.1453 2.63849 13.6667C2.63849 16.1881 2.63964 18.0015 2.79181 19.406C2.94202 20.7921 3.23019 21.6645 3.72638 22.3474C4.07762 22.8308 4.50274 23.256 4.98615 23.6072C5.66911 24.1033 6.54147 24.3916 7.92755 24.5417C9.33203 24.6939 11.1454 24.6951 13.6668 24.6951C14.2032 24.6951 14.6385 25.1303 14.6385 25.6667C14.6384 26.1696 14.2561 26.5836 13.7664 26.6335L13.6668 26.6384L11.908 26.6355C10.2459 26.6281 8.86872 26.598 7.71857 26.4734C6.16701 26.3053 4.91295 25.9563 3.84357 25.1794C3.27642 24.7674 2.76925 24.279 2.33575 23.7292L2.15411 23.49C1.37715 22.4206 1.02828 21.1666 0.860169 19.615C0.694037 18.0816 0.69513 16.1449 0.69513 13.6667C0.69513 11.1886 0.694044 9.25193 0.860169 7.71851C1.02828 6.16689 1.37714 4.91292 2.15411 3.84351C2.62514 3.19525 3.19531 2.62508 3.84357 2.15405C4.91297 1.37711 6.16697 1.02821 7.71857 0.860108C9.25198 0.693991 11.1887 0.695069 13.6668 0.695069H14.3338ZM19.0008 7.36206C19.5369 7.36249 19.9715 7.7975 19.9715 8.33374V9.66675C19.9713 10.2028 19.5368 10.638 19.0008 10.6384C18.4644 10.6384 18.0293 10.2031 18.0291 9.66675V9.30542H14.6385V18.0291H15.0008L15.0994 18.0339C15.5892 18.0837 15.9715 18.4978 15.9715 19.0007C15.9711 19.5033 15.589 19.9168 15.0994 19.9666L15.0008 19.9714H12.3338C11.7975 19.9714 11.3625 19.5369 11.3621 19.0007C11.3621 18.4642 11.7973 18.0291 12.3338 18.0291H12.6961V9.30542H9.30548V9.66675C9.30526 10.2029 8.86996 10.6382 8.3338 10.6384C7.79743 10.6384 7.36234 10.2031 7.36212 9.66675V8.33374C7.36212 7.79724 7.7973 7.36206 8.3338 7.36206H19.0008Z" fill="url(#paint0_linear_16_1120)"/>
<defs>
<linearGradient id="paint0_linear_16_1120" x1="0.695129" y1="0.695068" x2="29.3049" y2="29.3048" gradientUnits="userSpaceOnUse">
<stop stop-color="#FFD3A5"/>
<stop offset="1" stop-color="#FD6585"/>
</linearGradient>
</defs>
</svg>

<svg xmlns="http://www.w3.org/2000/svg" width="30" height="30" fill="none" viewBox="0 0 30 30"><path fill="url(#a)" d="M21.306 17.848c.587-1.489 2.648-1.536 3.328-.14l.06.14.001.001.049.123.117.279a5.83 5.83 0 0 0 3.166 3.006l.124.048h.001c1.537.607 1.537 2.782 0 3.39l-.126.048h.001a5.83 5.83 0 0 0-3.283 3.284l-.049.124v.001c-.608 1.537-2.783 1.537-3.39 0l-.048-.125a5.83 5.83 0 0 0-3.285-3.283v-.001l-.123-.048c-1.538-.608-1.538-2.783 0-3.39l.123-.048a5.83 5.83 0 0 0 3.285-3.285l.048-.123m1.694.988A7.77 7.77 0 0 1 18.836 23 7.77 7.77 0 0 1 23 27.163 7.77 7.77 0 0 1 27.163 23 7.77 7.77 0 0 1 23 18.836M14.334.696c2.163 0 3.854-.002 5.202.126 1.362.13 2.475.399 3.455 1a7.64 7.64 0 0 1 2.521 2.52c.6.98.87 2.093 1 3.456.128 1.348.127 3.038.127 5.202a.972.972 0 0 1-1.944 0c0-2.201 0-3.784-.118-5.019-.116-1.22-.339-2-.72-2.623a5.7 5.7 0 0 0-1.88-1.88c-.624-.383-1.404-.605-2.625-.721-1.234-.118-2.817-.119-5.018-.119h-.667c-2.522 0-4.335.002-5.74.154-1.386.15-2.258.438-2.94.934a5.7 5.7 0 0 0-1.26 1.26c-.497.683-.785 1.555-.935 2.941-.152 1.405-.154 3.218-.154 5.74 0 2.521.002 4.335.154 5.739.15 1.386.438 2.259.934 2.941.352.484.777.909 1.26 1.26.683.496 1.555.785 2.942.935 1.404.152 3.217.153 5.739.153a.972.972 0 0 1 .1 1.939l-.1.004-1.759-.003c-1.662-.007-3.04-.037-4.19-.162-1.551-.168-2.805-.517-3.874-1.294a7.6 7.6 0 0 1-1.508-1.45l-.182-.239c-.777-1.07-1.126-2.323-1.294-3.875-.166-1.533-.165-3.47-.165-5.948S.694 9.252.86 7.719c.168-1.552.517-2.806 1.294-3.875a7.6 7.6 0 0 1 1.69-1.69C4.913 1.377 6.167 1.028 7.719.86c1.533-.166 3.47-.165 5.948-.165zM19 7.361c.536 0 .97.436.97.972v1.333a.972.972 0 0 1-1.942 0v-.362h-3.39v8.724H15l.098.005a.972.972 0 0 1 0 1.933L15 19.97h-2.667a.972.972 0 1 1 0-1.942h.362V9.305h-3.39v.362a.973.973 0 0 1-1.944 0V8.334c0-.537.435-.972.972-.972z"/><defs><linearGradient id="a" x1=".695" x2="29.305" y1=".695" y2="29.305" gradientUnits="userSpaceOnUse"><stop stop-color="#ffd3a5"/><stop offset="1" stop-color="#fd6585"/></linearGradient></defs></svg>
